X: 27
T: O Come All Ye Faithful
P: piffero primo c0013
O: traditional
%R: march
F: http://ancients.sudburymuster.org/mus/col/pdf/carolsF.pdf
Z: 2020 John Chambers <jc:trillian.mit.edu>
M: 4/4
L: 1/4
K: D
% - - - - - - - - - -
d |\
d2 Ad | e2 A2 | fe fg | f2 ed |\
d2 cB | cd eg | f2 e>d | d3 z |\
a2 gf | g2 f2 |
ef de | c>B A |]|\
d | dc de | d2 Af | fe fg | f2 ef |\
gf ed | c2 eg | f2 e>d | d3 |]
%% - - - - - - - - - -


